digital/Imbassy-X-Files/65ef0811cc67439994568a45/65ef0811cc67439994569433_Frame 22666492.svg

<svg fill="none" height="128" viewBox="0 0 128 128" width="128" xmlns="http://www.w3.org/2000/svg"><g stroke="#090a0b" stroke-width="8"><path d="m109.247 109.25-90.5034-90.5043"/><path d="m18.7461 109.25 90.5039-90.5048"/><path d="m63.9961 127.988v-127.99288853"/><path d="m.00878906 63.9976h127.99121094"/><path d="m63.9966 95.9964c-17.6717 0-31.9975-14.326-31.9975-31.9981s14.3258-31.9981 31.9975-31.9981 31.9975 14.326 31.9975 31.9981-14.3258 31.9981-31.9975 31.9981z"/><path d="m63.9956 123.995c-33.1346 0-59.9956-26.8612-59.9956-59.9965 0-33.1352 26.861-59.99655 59.9956-59.99655s59.9954 26.86135 59.9954 59.99655c0 33.1353-26.8608 59.9965-59.9954 59.9965z"/></g></svg>

<svg width="128" height="128" viewBox="0 0 128 128" fill="none" xmlns="http://www.w3.org/2000/svg">
<path d="M109.247 109.25L18.7436 18.7457" stroke="#090A0B" stroke-width="8"/>
<path d="M18.7461 109.25L109.25 18.7452" stroke="#090A0B" stroke-width="8"/>
<path d="M63.9961 127.988L63.9961 -0.00488853" stroke="#090A0B" stroke-width="8"/>
<path d="M0.00878906 63.9976L128 63.9976" stroke="#090A0B" stroke-width="8"/>
<path d="M63.9966 95.9964C46.3249 95.9964 31.9991 81.6704 31.9991 63.9983C31.9991 46.3262 46.3249 32.0002 63.9966 32.0002C81.6683 32.0002 95.9941 46.3262 95.9941 63.9983C95.9941 81.6704 81.6683 95.9964 63.9966 95.9964Z" stroke="#090A0B" stroke-width="8"/>
<path d="M63.9956 123.995C30.861 123.995 4 97.1338 4 63.9985C4 30.8633 30.861 4.00195 63.9956 4.00195C97.1302 4.00195 123.991 30.8633 123.991 63.9985C123.991 97.1338 97.1302 123.995 63.9956 123.995Z" stroke="#090A0B" stroke-width="8"/>
</svg>
